X: 10402
T: AGNES SOREL QUADRILLES Part 4
C: Arranged by W. B. Laybourn
R: jig
B: K\"ohler's Violin Repository, v.1, 1885 p.40 #2
F: http://www.archive.org/details/klersviolinrepos01edin
Z: 2011 John Chambers <jc:trillian.mit.edu>
M: 6/8
L: 1/8
K: D
ua |\
e'3 d'c'b | a3 abc' | d'3 d'af | dAF D2z |\
e3 dcB | A3 Ace | a3 gfe | d2z vd2z ||
vf2z ug2z | a3- a2d | e3- efe | d3- dz uA |\
vf2z ug2z | a3- a2f | e3 d'c'b | aa/a/a a(.a.a) |
aaa aaa | aaa aaa | aaa aaa | aaa [aA]z uA |\
[g3e3] [f3d3] | [e3A3] [gA][fA][eA] | [f3A3D3] fed | eAB cde |
vf2z ug2z | va3- a2d | e3- efe | d3- d2uA |\
vf2z ug2z | a3- a2d' | c'ba gfe | d2z vd'2 "_D.C"|]

%%sep 2 1 500

